avogadro/qtplugins/manipulator/manipulator_dark.svg

<svg xmlns="http://www.w3.org/2000/svg" xmlns:svg="http://www.w3.org/2000/svg" id="svg1" width="128" height="128" version="1.1" viewBox="0 0 33.867 33.867" xml:space="preserve"><defs id="defs1"><linearGradient id="linearGradient10"><stop style="stop-color:#c2c2c2;stop-opacity:1" id="stop9" offset="0"/><stop style="stop-color:#000;stop-opacity:1" id="stop10" offset="1"/></linearGradient><linearGradient id="linearGradient1"><stop style="stop-color:#ece69f;stop-opacity:1" id="stop7" offset="0"/><stop style="stop-color:#ffca00;stop-opacity:1" id="stop8" offset="1"/></linearGradient><linearGradient id="linearGradient1-1"><stop style="stop-color:#c2c2c2;stop-opacity:1" id="stop4" offset="0"/><stop style="stop-color:#7b7b7b;stop-opacity:1" id="stop5" offset="1"/></linearGradient></defs><g id="layer5" style="display:inline"><path id="path2" style="fill:#fff;fill-opacity:1" d="M 17.620113 2.1585245 C 17.22711 2.1486818 16.908911 2.3799649 16.625858 2.8365193 C 16.099182 3.6860304 16.435915 4.5054728 18.046443 6.2957396 C 19.172848 7.5478539 19.568696 8.1681026 20.114017 9.5327513 C 20.485046 10.461233 20.850659 11.348736 20.926371 11.505241 C 21.002087 11.661742 20.976211 11.797474 20.86901 11.806514 C 20.761826 11.815589 20.535208 11.543522 20.365165 11.2019 C 20.195128 10.860276 19.254239 9.5096689 18.274336 8.2005329 C 16.689544 6.083276 16.30507 5.6974114 14.792378 4.7103067 C 13.857057 4.0999646 12.898003 3.5081976 12.661242 3.3951415 C 11.571151 2.8746119 10.359158 3.557333 10.420552 4.6575968 C 10.470432 5.551642 11.071079 6.2224703 12.977502 7.5137531 C 14.243897 8.3715207 14.921614 9.0107682 15.766479 10.145634 C 17.185419 12.051622 18.043396 13.435897 17.9064 13.598136 C 17.847563 13.66781 17.768953 13.690237 17.731734 13.647745 C 16.72176 12.494668 15.782679 11.674315 13.54801 9.9931883 C 11.071451 8.1300835 10.621143 7.8751939 8.2708128 7.0068073 C 5.1351615 5.8482651 4.0587585 5.8014992 3.3424316 6.7913166 C 2.4122736 8.0766058 3.6029287 9.2261668 7.156669 10.473779 C 9.3795595 11.254168 9.5238124 11.343036 12.323795 13.645678 C 13.908011 14.9485 15.21378 16.122392 15.22491 16.254305 C 15.236024 16.386223 14.873867 16.227071 14.420308 15.900838 C 13.966746 15.574598 12.398092 14.771414 10.934216 14.115934 C 8.3625448 12.964428 8.186571 12.91709 5.7386677 12.721704 C 2.9954664 12.502745 2.1138454 12.654077 1.434021 13.459127 C 0.97611694 14.001414 1.0672739 14.961914 1.6210896 15.429549 C 2.2376138 15.950139 2.869963 16.094843 5.1609252 16.239319 C 6.9751724 16.353732 7.3883019 16.463274 9.4449013 17.378267 C 12.111274 18.564549 13.544115 19.446265 15.010453 20.801831 C 16.589035 22.261162 16.732978 23.299908 15.708085 25.833565 C 15.36018 26.693628 15.23517 26.819331 14.681274 26.86606 C 14.270334 26.900726 13.646311 26.685135 12.890169 26.24801 C 10.978995 25.143152 9.8479108 25.042804 9.0190876 25.904361 C 8.2701202 26.682909 9.0717657 27.621193 12.105721 29.516027 L 14.053405 30.73249 L 16.161804 30.330448 C 20.944785 29.417793 20.998246 29.413679 21.996073 29.890681 C 22.495464 30.12941 23.37375 30.65036 23.947375 31.048233 C 24.520996 31.446115 25.174657 31.756094 25.399999 31.73708 C 25.625341 31.718108 26.269057 31.422751 26.830403 31.081306 C 28.63937 29.980984 31.687492 26.191257 32.420759 24.130826 C 32.876014 22.85159 32.782907 22.509594 31.624426 21.213175 C 31.049921 20.570265 29.619209 18.751051 28.445292 17.170011 C 27.271377 15.588972 25.796097 13.813663 25.166422 13.225032 C 24.220666 12.340922 23.975067 11.97554 23.756172 11.123352 C 23.610429 10.555975 23.050999 9.0765602 22.512837 7.836214 C 21.756531 6.0930895 21.275284 5.2870806 20.393587 4.2860432 C 19.13802 2.8605352 18.275118 2.1749291 17.620113 2.1585245 z"/></g></svg>

<svg height="128" viewBox="0 0 33.867 33.867" width="128" xmlns="http://www.w3.org/2000/svg"><path d="m17.62 2.159c-.393-.01-.711.221-.994.678-.527.849-.19 1.668 1.42 3.459 1.127 1.252 1.523 1.872 2.068 3.237.371.928.737 1.816.812 1.972.076.157.05.292-.057.302-.107.009-.334-.263-.504-.605s-1.111-1.692-2.091-3.001c-1.584-2.118-1.969-2.504-3.482-3.491-.935-.61-1.894-1.202-2.131-1.315-1.09-.52-2.302.162-2.24 1.263.049.894.65 1.564 2.557 2.856 1.266.858 1.944 1.497 2.788 2.632 1.419 1.906 2.277 3.29 2.14 3.452-.058.07-.137.092-.174.05-1.01-1.153-1.949-1.974-4.184-3.655-2.477-1.863-2.927-2.118-5.277-2.986-3.136-1.159-4.212-1.206-4.929-.216-.93 1.286.261 2.435 3.815 3.683 2.223.78 2.367.869 5.167 3.172 1.584 1.303 2.89 2.476 2.901 2.608s-.351-.027-.805-.353c-.453-.326-2.022-1.13-3.486-1.785-2.571-1.152-2.747-1.199-5.195-1.394-2.744-.219-3.625-.068-4.305.737-.458.542-.367 1.503.187 1.971.617.52 1.249.665 3.54.809 1.814.115 2.227.224 4.284 1.139 2.666 1.187 4.099 2.068 5.565 3.424 1.579 1.459 1.723 2.498.698 5.032-.348.86-.473.985-1.027 1.032-.411.035-1.035-.181-1.791-.618-1.911-1.105-3.042-1.205-3.871-.344-.749.779.053 1.717 3.087 3.612l1.947 1.216 2.109-.402c4.783-.912 4.836-.916 5.834-.439.499.238 1.378.759 1.951 1.157.574.398 1.228.708 1.453.689s.869-.314 1.43-.656c1.809-1.1 4.857-4.89 5.591-6.95.455-1.279.362-1.621-.797-2.918-.574-.643-2.005-2.462-3.179-4.043s-2.649-3.356-3.279-3.945c-.945-.884-1.191-1.249-1.41-2.102-.146-.567-.705-2.046-1.243-3.287-.756-1.743-1.238-2.549-2.119-3.55-1.256-1.425-2.119-2.111-2.774-2.127z" fill="#fff"/></svg>
